epam-assets/icon-sources/18/editor-headline_h3.svg

<svg width="18" height="18" viewBox="0 0 18 18" fill="none" xmlns="http://www.w3.org/2000/svg">
<g id="18/editor-headline_h3">
<path id="icon" fill-rule="evenodd" clip-rule="evenodd" d="M2.25 3.75H3.75V8.25H6.75V3.75H8.25V14.25H6.75V9.75H3.75V14.25H2.25V3.75ZM11.25 3.75H14.25C15.0784 3.75 15.75 4.42157 15.75 5.25V12.75C15.75 13.5784 15.0784 14.25 14.25 14.25H11.25C10.4216 14.25 9.75 13.5784 9.75 12.75V12H11.25V12.75H14.25V9.75H11.25V8.25H14.25V5.25H11.25V6H9.75V5.25C9.75 4.42157 10.4216 3.75 11.25 3.75Z" fill="#6C6F80"/>
</g>
</svg>

<svg xmlns="http://www.w3.org/2000/svg" width="18" height="18" fill="none" viewBox="0 0 18 18">
  <path fill="#6C6F80" fill-rule="evenodd" d="M2.25 3.75h1.5v4.5h3v-4.5h1.5v10.5h-1.5v-4.5h-3v4.5h-1.5V3.75Zm9 0h3a1.5 1.5 0 0 1 1.5 1.5v7.5a1.5 1.5 0 0 1-1.5 1.5h-3a1.5 1.5 0 0 1-1.5-1.5V12h1.5v.75h3v-3h-3v-1.5h3v-3h-3V6h-1.5v-.75a1.5 1.5 0 0 1 1.5-1.5Z" clip-rule="evenodd"/>
</svg>
